public/formular-icons/english/lower-d.svg

<svg style="vertical-align:-.023ex" xmlns="http://www.w3.org/2000/svg" width="1.176ex" height="1.593ex" viewBox="0 -694 520 704" xmlns:xlink="http://www.w3.org/1999/xlink"><defs><path id="a" d="M366 683q1 0 72 5t73 6q12 0 12-8 0-7-73-302T375 83t-1-15q0-42 28-42 9 1 20 9 21 20 41 96 6 20 10 21 2 1 10 1h8q15 0 15-8 0-5-3-16-13-50-30-81T445 8 417-8q-8-2-24-2-34 0-57 15t-30 31l-6 15q-1 1-4-1l-4-4q-59-56-120-56-55 0-97 40T33 157q0 48 20 98t48 86q47 57 94 79t85 22q56 0 84-42 5-6 5-4 1 4 27 109t28 111q0 13-7 16t-39 5h-21q-6 6-6 8t2 19q5 19 13 19Zm-14-357q-23 79-75 79-35 0-67-31t-50-81q-29-79-41-164v-11q0-8-1-12 0-45 18-62t43-18q54 0 111 72l8 11 54 217Z"/></defs><g stroke="currentColor" fill="currentColor" stroke-width="0"><use data-c="1D451" xlink:href="#a" transform="scale(1 -1)"/></g></svg>

<svg style="vertical-align: -0.023ex" xmlns="http://www.w3.org/2000/svg" width="1.176ex" height="1.593ex" role="img" focusable="false" viewBox="0 -694 520 704" xmlns:xlink="http://www.w3.org/1999/xlink"><defs><path id="MJX-39-TEX-I-1D451" d="M366 683Q367 683 438 688T511 694Q523 694 523 686Q523 679 450 384T375 83T374 68Q374 26 402 26Q411 27 422 35Q443 55 463 131Q469 151 473 152Q475 153 483 153H487H491Q506 153 506 145Q506 140 503 129Q490 79 473 48T445 8T417 -8Q409 -10 393 -10Q359 -10 336 5T306 36L300 51Q299 52 296 50Q294 48 292 46Q233 -10 172 -10Q117 -10 75 30T33 157Q33 205 53 255T101 341Q148 398 195 420T280 442Q336 442 364 400Q369 394 369 396Q370 400 396 505T424 616Q424 629 417 632T378 637H357Q351 643 351 645T353 664Q358 683 366 683ZM352 326Q329 405 277 405Q242 405 210 374T160 293Q131 214 119 129Q119 126 119 118T118 106Q118 61 136 44T179 26Q233 26 290 98L298 109L352 326Z"></path></defs><g stroke="currentColor" fill="currentColor" stroke-width="0" transform="scale(1,-1)"><g data-mml-node="math"><g data-mml-node="mi"><use data-c="1D451" xlink:href="#MJX-39-TEX-I-1D451"></use></g></g></g></svg>
